X: 1
T: Alasdair Macalister
R: strathspey
O: trad
B: Cole p.126 (Gm); Skye p.119 (Am); Robbins ___
D:
Z: John Chambers <jc:trillian.mit.edu>
M: 4/4
L: 1/8
K: Am
"E7"e>d \
| "Am"c<A A>G E<A A>B \
| c<A A>c "E7"e2- e>d  \
| "Am"c<A A>G E<A A>c \
| "G"B<G G>B "(E7)"d2 :|
"G7"zB \
| "C"c>d e>f g>a g>e \
| c>d e>f "G7"g2- g>e \
| "C"c>d e>f g>a g>e \
| "G"B<G G>B "(E7)"d2 |]
d>B \
| "Am"c>d e>f "C"g>a g>e \
| "Am"c>d e>f "C"g2- g>a \
| "C7"(3_bag "F"a>f "C"g>e "Dm"f>d \
| "G"B<G G>B "(E7)"d2 |]
